// Rainforest Machine
// Author: Jackie Fazekas

(
	// load sounds
	"Initializing".postln;
	"...".postln;

	"rain_sounds.scd".loadRelative;
	"rain_collection.scd".loadRelative;

	// start GUI
	"rain_gui.scd".loadRelative;
)